hero/solid/question-mark-circle.svg

<svg width="24" height="24" viewBox="0 0 24 24" fill="none" xmlns="http://www.w3.org/2000/svg">
<path fill-rule="evenodd" clip-rule="evenodd" d="M2.25 12C2.25 6.61522 6.61522 2.25 12 2.25C17.3848 2.25 21.75 6.61522 21.75 12C21.75 17.3848 17.3848 21.75 12 21.75C6.61522 21.75 2.25 17.3848 2.25 12ZM13.6277 8.08328C12.7389 7.30557 11.2616 7.30557 10.3728 8.08328C10.0611 8.35604 9.58723 8.32445 9.31447 8.01272C9.04171 7.701 9.0733 7.22717 9.38503 6.95441C10.8394 5.68186 13.1611 5.68186 14.6154 6.95441C16.1285 8.27835 16.1285 10.4717 14.6154 11.7956C14.3588 12.0202 14.0761 12.2041 13.778 12.3484C13.1018 12.6756 12.7502 13.1222 12.7502 13.5V14.25C12.7502 14.6642 12.4144 15 12.0002 15C11.586 15 11.2502 14.6642 11.2502 14.25V13.5C11.2502 12.221 12.3095 11.3926 13.1246 10.9982C13.3073 10.9098 13.4765 10.799 13.6277 10.6667C14.4577 9.9404 14.4577 8.80959 13.6277 8.08328ZM12 18C12.4142 18 12.75 17.6642 12.75 17.25C12.75 16.8358 12.4142 16.5 12 16.5C11.5858 16.5 11.25 16.8358 11.25 17.25C11.25 17.6642 11.5858 18 12 18Z" fill="#0F172A"/>
</svg>

<svg viewBox="0 0 24 24" xmlns="http://www.w3.org/2000/svg"><path fill-rule="evenodd" d="M2.25 12c0-5.385 4.36-9.75 9.75-9.75 5.38 0 9.75 4.36 9.75 9.75 0 5.38-4.37 9.75-9.75 9.75 -5.39 0-9.75-4.37-9.75-9.75Zm11.378-3.917c-.89-.78-2.37-.78-3.26 0v0c-.32.27-.79.24-1.06-.08 -.28-.32-.25-.79.07-1.06 1.45-1.28 3.776-1.28 5.23 0 1.51 1.32 1.51 3.51 0 4.84v0c-.26.22-.54.4-.84.55 -.68.32-1.03.77-1.03 1.15v.75 0c0 .41-.34.75-.75.75 -.42 0-.75-.34-.75-.75v-.75c0-1.279 1.06-2.11 1.875-2.51 .18-.09.35-.2.5-.34 .83-.73.83-1.86 0-2.59ZM11.99 18v0c.41 0 .75-.34.75-.75 0-.42-.34-.75-.75-.75v0c-.42 0-.75.33-.75.75 0 .41.33.75.75.75Z"/></svg>
